contributed-vectors/digilocker.svg

<svg xmlns="http://www.w3.org/2000/svg" width="192" height="192" fill="none"><g clip-path="url(#a)"><path fill="#ABABFF" fill-rule="evenodd" d="M131.9 49c-7.1 0-13-5.8-13-13V9H43c-5.5 0-10 4.5-10 10v154c0 5.5 4.5 10 10 10h106c5.5 0 10-4.5 10-10V49h-27.1Z" clip-rule="evenodd"/><path fill="#ABABFF" fill-rule="evenodd" d="m124 9 35 35h-27.1c-4.4 0-8-3.6-8-8V9h.1Z" clip-rule="evenodd"/><path fill="#fff" d="M130.5 134.2c-2.2-3.4-5.5-4.6-6.5-4.9-1.9-5.8-6.5-10.1-12-11-4.1-.7-7.4.8-8.9 1.5-.9-1.5-3.7-5.7-9.2-8-8.2-3.4-15.5.3-16.5.8-1.4.7-7.9 4.1-9.3 11.1-.5 2.4-.3 4.4 0 5.8-.9.3-2.3.7-3.6 1.8-4.2 3.2-6.7 10.1-3.8 15.7 2.6 5 8 6.1 8.9 6.3h53c4.9-1.4 8.7-5.1 9.7-9.8 1-5-1.5-8.8-1.8-9.3Zm-31.4 7.6h-6.2l1.9-7.1c-1.1-.5-1.9-1.6-1.9-2.8 0-1.7 1.4-3.1 3.1-3.1 1.7 0 3.1 1.4 3.1 3.1 0 1.3-.8 2.4-1.9 2.8l1.9 7.1Z"/></g><defs><clipPath id="a"><path fill="#fff" d="M0 0h192v192H0z"/></clipPath></defs></svg>

<svg width="192" height="192" viewBox="0 0 192 192" fill="none" xmlns="http://www.w3.org/2000/svg">
<g clip-path="url(#clip0)">
<path fill-rule="evenodd" clip-rule="evenodd" d="M131.9 49C124.8 49 118.9 43.2 118.9 36V9H43C37.5 9 33 13.5 33 19V173C33 178.5 37.5 183 43 183H149C154.5 183 159 178.5 159 173V49H131.9Z" fill="#ABABFF"/>
<path fill-rule="evenodd" clip-rule="evenodd" d="M124 9L159 44H131.9C127.5 44 123.9 40.4 123.9 36V9H124Z" fill="#ABABFF"/>
<path d="M130.5 134.2C128.3 130.8 125 129.6 124 129.3C122.1 123.5 117.5 119.2 112 118.3C107.9 117.6 104.6 119.1 103.1 119.8C102.2 118.3 99.4 114.1 93.9 111.8C85.7 108.4 78.4 112.1 77.4 112.6C76 113.3 69.5 116.7 68.1 123.7C67.6 126.1 67.8 128.1 68.1 129.5C67.2 129.8 65.8 130.2 64.5 131.3C60.3 134.5 57.8 141.4 60.7 147C63.3 152 68.7 153.1 69.6 153.3C87.3 153.3 104.9 153.3 122.6 153.3C127.5 151.9 131.3 148.2 132.3 143.5C133.3 138.5 130.8 134.7 130.5 134.2ZM99.1 141.8H96H92.9L94.8 134.7C93.7 134.2 92.9 133.1 92.9 131.9C92.9 130.2 94.3 128.8 96 128.8C97.7 128.8 99.1 130.2 99.1 131.9C99.1 133.2 98.3 134.3 97.2 134.7L99.1 141.8Z" fill="white"/>
</g>
<defs>
<clipPath id="clip0">
<rect width="192" height="192" fill="white"/>
</clipPath>
</defs>
</svg>
